!!!!SEGMENT: pl-sa--102-a-iii-2--003_anonim--missa-de-nativitate-patrem.krn
!!!cenid: 18xx:1274
!!!COM: Anonim
!!!COM-rismid: pe30004985
!!!CDT:
!!!CNT:
!!!OPR: Missa de Nativitate
!!!OTL: Patrem
!!!OMV: 003
!!!PDT: 1814
!!!AGN: Sacred; Mass
!!!SMS-siglum: PL-SA
!!!SMS-shelfmark: 102/A III 2
!!!SMS-shelfwork: 001-003 M
!!!SMS-variant: Violino Primo: PL-SA A III 2 nr 102:11-14; Violino 2do.: PL-SA A III 2 nr 102:19-21
!!!SMS-altvar: Violino Primo: PL-SA A III 2 nr 102:15-17; Violino 2do.: PL-SA A III 2 nr 102:23-26
!!!NIFC-rismid: 1001035508
!!!URL-scan: http://bc.bdsandomierz.pl/dlibra/publication/1458/edition/1426/content
!!!ONB-nifc: UWAGA: części Mszy: 1. Kyrie, 2. Et in terra, 3. Patrem, 4. Sanctus, 5. Benedictus, 6. Agnus Dei
!!!AIN: 1 empty 2 violn 2 vox
!!!key:
**kern	**dynam	**kern	**dynam	**kern	**dynam	**kern	**text	**kern	**text
*part5	*part5	*part4	*part4	*part3	*part3	*part2	*part2	*part1	*part1
*group	*group	*group2	*group2	*group2	*group2	*group1	*group1	*group1	*group1
*staff5	*	*staff4	*	*staff3	*	*staff2	*staff2	*staff1	*staff1
*Iempty	*	*Ivioln	*	*Ivioln	*	*Ivox	*	*Ivox	*
*I"Baſso.	*	*I"Violino 2do.	*	*I"Violino Primo	*	*I"Canto 2do.	*	*I"Canto.	*
*I'b	*	*I'vl 2	*	*I'vl 1	*	*I'S 2	*	*I'S 1	*
*clefF4	*	*clefG2	*	*clefG2	*	*clefC1	*	*clefC1	*
*Trd0c0	*	*	*	*	*	*	*	*	*
*k[f#]	*	*k[f#]	*	*k[f#]	*	*k[f#]	*	*k[f#]	*
*G:	*	*G:	*	*G:	*	*G:	*	*G:	*
*M2/2	*	*M2/2	*	*M2/2	*	*M2/2	*	*M2/2	*
*met(c|)	*	*met(c|)	*	*met(c|)	*	*met(c|)	*	*met(c|)	*
=1	=1	=1	=1	=1	=1	=1	=1	=1	=1
*	*below	*	*below	*	*below	*	*	*2\right	*
!LO:TX:a:t=8	!	!	!	!	!	!	!	!	!
!LO:TX:a:i:t=allabr[eve].	!	!LO:TX:a:t=P:problem=napis na pięciolinii nad nutami	!	!LO:TX:b:i:t=Patrem —	!	!LO:TX:a:t=8	!	!	!
!LO:TX:b:i:t=Patrem =	!	!LO:TX:a:i:t=Patrem	!	!LO:TX:a:i:t=allabr[eve]	!	!LO:TX:a:i:t=allabr[eve].	!	!LO:TX:a:i:t=Moderato	!
!LO:TX:a:t=P:problem=metrum "C|" skierowane w drugą stronę	!	!LO:TX:a:t=P:problem=metrum "C|" skierowane w drugą stronę	!	!LO:TX:a:t=P:problem=metrum "C|" skierowane w drugą stronę	!	!LO:TX:a:t=P:problem=metrum "C|" skierowane w drugą stronę	!	!LO:TX:a:t=P:problem=metrum "C|" skierowane w drugą stronę	!
!LO:N:vis=00	!	!	!	!	!	!LO:N:vis=00	!	!	!
00r	.	2B/	.	2g/	.	00r	.	2g\	Pa-
.	.	2d/	.	2a/	.	.	.	2a\	-trem
=2	=2	=2	=2	=2	=2	=2	=2	=2	=2
.	.	2g/	.	2b/	.	.	.	2b\	om-
.	.	2B/	.	2g/	.	.	.	2g\	-ni-
=3	=3	=3	=3	=3	=3	=3	=3	=3	=3
.	.	4a/	.	4cc\	.	.	.	4cc\	-po-
.	.	(<4g/	.	4b\	.	.	.	4b\	.
.	.	4f#/	.	4a\	.	.	.	4a\	.
.	.	4g/)	.	4b\	.	.	.	4b\	.
=4	=4	=4	=4	=4	=4	=4	=4	=4	=4
.	.	2B/	.	2g/	.	.	.	2g/	-ten-
.	.	2B/	.	2d/	.	.	.	2d/	-tem
=5	=5	=5	=5	=5	=5	=5	=5	=5	=5
!LO:N:vis=00	!	!	!	!	!	!LO:N:vis=00	!	!	!
00r	.	2B/	.	2g/	.	00r	.	2g\	fac-
.	.	4f#/	.	4a/	.	.	.	4a\	-to-
.	.	4f#/	.	4a/	.	.	.	4a\	-rem
=6	=6	=6	=6	=6	=6	=6	=6	=6	=6
*	*	*	*	*2\right	*	*	*	*	*
.	.	2g/	.	2b\	.	.	.	2b\	cae-
.	.	2e/	.	2cc#X\	.	.	.	2cc#X\	-li
=7	=7	=7	=7	=7	=7	=7	=7	=7	=7
.	.	2f#/	.	2dd\	.	.	.	2dd\	et
.	.	2e/	.	2cc#X\	.	.	.	2cc#X\	ter-
=8	=8	=8	=8	=8	=8	=8	=8	=8	=8
.	.	2f#/	.	2dd\	.	.	.	2dd\	-rae
.	.	2r	.	2r	.	.	.	2r	.
=9	=9	=9	=9	=9	=9	=9	=9	=9	=9
2GG/	.	4b\|	.	4dd\	.	4b\	vi-	4dd\	vi-
.	.	4cc\|	.	4ee\	.	4cc\	-si-	4ee\	-si-
*2\right	*	*	*	*	*	*	*	*	*
2G\	.	4b\|	.	4dd\	.	4b\	-bi-	4dd\	-bi-
.	.	4a\|	.	4cc\	.	4a\	-li-	4cc\	-li-
=10	=10	=10	=10	=10	=10	=10	=10	=10	=10
2GG/	.	4g/|	.	4b/	.	4g\	-um	4b\	-um
.	.	4f#/|	.	4a/	.	4r	.	4r	.
2G\	.	4g/|	.	4b/	.	2r	.	2r	.
.	.	4a/|	.	4cc/	.	.	.	.	.
!	!	!	!	!LO:PB:g=original	!	!	!	!LO:PB:g=original	!
=11	=11	=11	=11	=11	=11	=11	=11	=11	=11
2GG/	.	(>4b\	.	4dd\	.	4b\	o-	4dd\	o-
.	.	4cc\	.	4ee\	.	4cc\	.	4ee\	.
2G\	.	4b\	.	4dd\	.	4b\	-mni-	4dd\	-mni-
.	.	4a\)	.	4cc\	.	4a\	.	4cc\	.
=12	=12	=12	=12	=12	=12	=12	=12	=12	=12
2GG/	.	2g/	.	2b\	.	2g/	-um	2b\	-um
2G\	.	2r	.	2r	.	2r	.	2r	.
=13	=13	=13	=13	=13	=13	=13	=13	=13	=13
*	*	*2\right	*	*	*	*2\right	*	*	*
!	!	!	!	!	!LO:DY:b	!	!	!	!
2GG/	.	2b\|	.	2dd\	p	2b\	et	2dd\	et
2r	.	2cc\|	.	2ee\	.	2cc\	in-	2ee\	in-
!	!	!LO:LB:g=original	!	!	!	!	!	!	!
=14	=14	=14	=14	=14	=14	=14	=14	=14	=14
2D/	.	2f#/	.	2a/	.	2f#/	-vi-	2a\	-vi-
2r	.	2a/	.	2cc\	.	2a/	-si-	2cc\	-ſi-
=15	=15	=15	=15	=15	=15	=15	=15	=15	=15
2G\	.	2g/	.	2b/	.	2g/	-bi-	2b\	-bi-
2D\	.	2f#/	.	2a/	.	2f#/	-li-	2a\	-li-
=16	=16	=16	=16	=16	=16	=16	=16	=16	=16
!	!	!	!	!	!LO:DY:b:t=for	!	!	!	!
4r	.	4r	.	(<4g/	f	4g/	-um	4g/	-um
4G\	.	4d 4B/	.	4b/)	.	4r	.	4r	.
2D\	.	4d 4B/	.	2d/	.	2r	.	2r	.
.	.	4d 4B/	.	.	.	.	.	.	.
=17	=17	=17	=17	=17	=17	=17	=17	=17	=17
!	!	!	!	!	!	!LO:TX:a:t=ii.	!	!LO:TX:a:t=ii.	!
!	!	!	!	!	!	!LO:N:vis=00	!	!LO:N:vis=00	!
4r	.	4r	.	(<4g/	.	00r	.	00r	.
4G\	.	4d 4B/	.	4b/)	.	.	.	.	.
2D\	.	4d 4B/	.	2d/	.	.	.	.	.
.	.	4d 4B/	.	.	.	.	.	.	.
=18	=18	=18	=18	=18	=18	=18	=18	=18	=18
4GG/	.	4G/	.	4g/	.	.	.	.	.
4AA/	.	4A/	.	4a/	.	.	.	.	.
4BB/	.	4B/	.	4b/	.	.	.	.	.
4C#X/	.	4c#X/	.	4cc#X/	.	.	.	.	.
=19	=19	=19	=19	=19	=19	=19	=19	=19	=19
4D/	.	4d/	.	(>4dd\	.	.	.	.	.
4C#X/	.	(<4c#X/	.	4cc#X\	.	.	.	.	.
4D/	.	(<4d/)	.	4dd\	.	.	.	.	.
4BB/	.	4B/)	.	4b\)	.	.	.	.	.
!LO:LB:g=original	!	!	!	!	!	!	!	!	!
=20	=20	=20	=20	=20	=20	=20	=20	=20	=20
4D\	.	4d/	.	(>4dd\	.	.	.	.	.
4C#X\	.	4c#X/	.	4cc#X\	.	.	.	.	.
4D\	.	4d/	.	4dd\	.	.	.	.	.
4BB/	.	4B/	.	4b\)	.	.	.	.	.
!	!	!	!	!LO:LB:g=original	!	!	!	!	!
=21	=21	=21	=21	=21	=21	=21	=21	=21	=21
!	!	!	!	!	!	!LO:N:vis=00	!	!LO:N:vis=00	!
8D\L	.	8eL 8d/	.	8dd\L	.	00r	.	00r	.
8E\	.	8e/	.	8ee\	.	.	.	.	.
8D\	.	8d/	.	8dd\	.	.	.	.	.
8C#X\J	.	8c#X/J	.	8cc#X\J	.	.	.	.	.
4D/	.	4d/	.	4dd\	.	.	.	.	.
4BB/	.	4B/	.	4b\	.	.	.	.	.
=22	=22	=22	=22	=22	=22	=22	=22	=22	=22
8D\L	.	(<8d/L	.	8dd\L	.	.	.	.	.
8E\	.	8e/	.	8ee\	.	.	.	.	.
8D\	.	8d/	.	8dd\	.	.	.	.	.
8C#X\J	.	8c#X/J)	.	8cc#X\J	.	.	.	.	.
4D\	.	4d/	.	4dd\	.	.	.	.	.
4G\	.	4g/	.	4gg\	.	.	.	.	.
=23	=23	=23	=23	=23	=23	=23	=23	=23	=23
8D\L	.	8d/L	.	8dd\L	.	.	.	.	.
8E\	.	8e/	.	8ee\	.	.	.	.	.
8D\	.	8d/	.	8dd\	.	.	.	.	.
8C#X\J	.	8c#X/J	.	8cc#X\J	.	.	.	.	.
4D/	.	4d/	.	4dd\	.	.	.	.	.
4BB/	.	4B/	.	4b\	.	.	.	.	.
!	!	!LO:LB:g=original	!	!	!	!	!	!	!
=24	=24	=24	=24	=24	=24	=24	=24	=24	=24
4GG/	.	4d 4B/	.	4g/|	.	.	.	.	.
4BB/	.	4d 4B/	.	4b/|	.	.	.	.	.
4D/	.	4d 4B/	.	(<4dd/	.	.	.	.	.
4Cn/	.	4d 4B/	.	4cc/)	.	.	.	.	.
=25	=25	=25	=25	=25	=25	=25	=25	=25	=25
!	!	!	!	!	!	!LO:N:vis=0	!	!LO:N:vis=0	!
4AA/	.	4cn/	.	(<4a/	.	0r	.	0r	.
4FF#/	.	4A/	.	4f#/)	.	.	.	.	.
2GG/	.	2d 2B/	.	2g/|	.	.	.	.	.
=26	=26	=26	=26	=26	=26	=26	=26	=26	=26
4GG/	.	4d 4B/	.	4g/|	.	.	.	.	.
4BB/	.	4d 4B/	.	4b/|	.	.	.	.	.
4D/	.	4d 4B/	.	(<4dd/	.	.	.	.	.
4C/	.	4d 4B/	.	4cc/)	.	.	.	.	.
=27	=27	=27	=27	=27	=27	=27	=27	=27	=27
4AA/	.	4c/	.	4a/	.	1r	.	1r	.
4FF#/	.	4A/	.	4f#/	.	.	.	.	.
2GG/	.	2d 2B/	.	2g/	.	.	.	.	.
!LO:PB:g=original	!	!	!	!	!	!LO:PB:g=original	!	!	!
=28	=28	=28	=28	=28	=28	=28	=28	=28	=28
!	!LO:DY:b:t=p.	!	!LO:DY:b:t=p.	!	!LO:DY:b:t=pp.	!	!	!	!
2GG/	p	(>2.b\	p	2.dd\	pp	2.b\	et	2.dd\	Et
2G\	.	.	.	.	.	.	.	.	.
.	.	4cc\)	.	4ee\	.	4cc\	ex	4ee\	ex
!	!	!	!	!LO:LB:g=original	!	!	!	!	!
=29	=29	=29	=29	=29	=29	=29	=29	=29	=29
2G'>\	.	2b/	.	2dd\	.	2b\	pa-	2dd\	pa-
2G'>\	.	2g/	.	2b\	.	2g\	-tre	2b\	-tre
=30	=30	=30	=30	=30	=30	=30	=30	=30	=30
2D'>\	.	2a/	.	2cc\	.	2a\	na-	2cc\	na-
2D'>\	.	2a/	.	2cc\	.	2a\	-tum	2cc\	-tum
=31	=31	=31	=31	=31	=31	=31	=31	=31	=31
!LO:TX:a:t=P:problem=Takt 31 zapisany repetycją	!	!	!	!	!	!	!	!	!
2D'>\yy	.	4a/	.	4cc\	.	4a\	an-	4cc\	an-
.	.	4g/	.	4b\	.	4g\	.	4b\	.
2D'>\yy	.	2f#/	.	2a/	.	2f#/	-te	2a\	-te
!	!	!	!	!	!	!	!	!LO:LB:g=original	!
=32	=32	=32	=32	=32	=32	=32	=32	=32	=32
2G\	.	4g/	.	4b\|	.	4g/	om-	4b\	om-
.	.	4g/	.	4b\|	.	4g/	-ni-	4b\	-ni-
2r	.	2g/	.	2b/	.	2g/	-a	2b\	-a
=33	=33	=33	=33	=33	=33	=33	=33	=33	=33
*	*	*	*	*	*	*	*ij	*	*
!LO:TX:a:t=P:problem=przekreslony takt przed tym taktem	!	!	!	!	!	!	!	!	!
2D/	.	4a/	.	4cc\|	.	4a\	om-	4cc\	om-
.	.	4a/	.	4cc\|	.	4a\	-ni-	4cc\	-ni-
2r	.	2a/	.	2cc\	.	2a\	-a	2cc\	-a
*	*	*	*	*	*	*	*Xij	*	*
=34	=34	=34	=34	=34	=34	=34	=34	=34	=34
4G\	.	4b\	.	4dd\	.	4b\	ſae-	4dd\	ſae-
4D\	.	4b\	.	4dd\	.	4b\	-cu-	4dd\	-cu-
2GG/	.	4b\	.	4dd\	.	4b\	-la	4dd\	-la
.	.	4r	.	4r	.	4r	.	4r	.
=35	=35	=35	=35	=35	=35	=35	=35	=35	=35
2GG/	.	2b\	.	2dd\	.	2b\	De-	2dd\	De-
2r	.	4cc\	.	4ee\	.	4cc\	-um	4ee\	-um
.	.	4a\	.	4ff#\	.	4a\	de	4ff#\	de
=36	=36	=36	=36	=36	=36	=36	=36	=36	=36
2G\	.	2b/	.	2gg\	.	2b\	De-	2gg\	De-
2D\	.	2g/	.	2b\	.	2g\	-o	2b\	-o
!	!	!LO:LB:g=original	!	!	!	!LO:LB:g=original	!	!	!
=37	=37	=37	=37	=37	=37	=37	=37	=37	=37
4F#\	.	4b/	.	4dd\	.	4b\	-lu-	4dd\	-lu-
4D\	.	(<4a/	.	4cc\	.	4a\	.	4cc\	.
4F#\	.	4g/	.	4a\	.	4f#\	-men	4a\	-men
4D\	.	4a/)	.	4cc\	.	4a\	de	4cc\	de
=38	=38	=38	=38	=38	=38	=38	=38	=38	=38
4G\	.	4a/	.	4cc\	.	4a\	lu-	4cc\	lu-
4GG/	.	[<4g/	.	4b\	.	4g\	-mi-	4b\	-mi-
4BB/	.	2g/]	.	2b\	.	2g/	-ne	2b\	-ne
4D/	.	.	.	.	.	.	.	.	.
!LO:LB:g=original	!	!	!	!	!	!	!	!	!
=39	=39	=39	=39	=39	=39	=39	=39	=39	=39
2GG/	.	2b\	.	2dd\	.	2b\	De-	2dd\	de-
2r	.	4cc\	.	4ee\	.	4cc\	-um	4ee\	-um
.	.	4a\	.	4ff#\	.	4a\	De	4ff#\	De
!	!	!	!	!LO:LB:g=original	!	!	!	!	!
=40	=40	=40	=40	=40	=40	=40	=40	=40	=40
2GG/	.	2b\	.	2gg\	.	2b\	De-	2gg\	de-
2r	.	2g/	.	2b\	.	2g\	-o	2b\	-o
!	!	!	!	!	!	!	!	!LO:LB:g=original	!
=41	=41	=41	=41	=41	=41	=41	=41	=41	=41
4D\	.	(<4b/	.	(>4dd\	.	4b\	ve-	4dd\	ve-
4D\	.	4a/	.	4cc\	.	4a\	.	4cc\	.
4F#\	.	4c/)	.	4a\	.	4d/	.	4a\	.
4A\	.	4A/	.	4f#\)	.	4d/	.	4f#/	.
=42	=42	=42	=42	=42	=42	=42	=42	=42	=42
4G\	.	2B/	.	2g/	.	2g/	-ro.	2g/	-ro
4D\	.	.	.	.	.	.	.	.	.
!	!	!LO:TX:b:t=P:problem=napis pod niezapisaną częścią ostatniego systemu na dole strony	!	!	!	!	!	!	!
!	!	!LO:TX:b:i:t=vertatur citiſsimo	!	!	!	!	!	!	!
4BB/	.	2r	.	2r	.	2r	.	2r	.
4GG/	.	.	.	.	.	.	.	.	.
!	!	!LO:PB:g=original	!	!	!	!	!	!	!
=43	=43	=43	=43	=43	=43	=43	=43	=43	=43
!	!	!	!	!	!LO:DY:b:t=for	!LO:TX:a:t=12	!	!LO:TX:a:t=12	!
!	!	!	!	!	!	!LO:N:vis=00	!	!LO:N:vis=00	!
2GG/	.	2d 2B/	.	4b/|	f	00r	.	00r	.
.	.	.	.	4g/|	.	.	.	.	.
!LO:TX:b:t=P:problem=pod pauzą znak "+"	!	!	!	!	!	!	!	!	!
2r	.	4r	.	4cc/|	.	.	.	.	.
.	.	4d 4c/	.	4a/|	.	.	.	.	.
=44	=44	=44	=44	=44	=44	=44	=44	=44	=44
2GG/	.	2d 2B/	.	4b/|	.	.	.	.	.
.	.	.	.	4g/|	.	.	.	.	.
2r	.	4r	.	4a/|	.	.	.	.	.
.	.	4d 4c/	.	4d/|	.	.	.	.	.
=45	=45	=45	=45	=45	=45	=45	=45	=45	=45
!	!	!	!	!LO:TX:a:t=P:problem=Takty 45-46 zapisane repetycją	!	!	!	!	!
2GG/	.	2d 2B/	.	4b/yy|	.	.	.	.	.
.	.	.	.	4g/yy|	.	.	.	.	.
2r	.	4r	.	4cc/yy|	.	.	.	.	.
.	.	4d 4c/	.	4a/yy|	.	.	.	.	.
=46	=46	=46	=46	=46	=46	=46	=46	=46	=46
2GG/	.	2d 2B/	.	4b/yy|	.	.	.	.	.
.	.	.	.	4g/yy|	.	.	.	.	.
2r	.	4r	.	4a/yy|	.	.	.	.	.
.	.	4d 4c/	.	4d/yy|	.	.	.	.	.
=47	=47	=47	=47	=47	=47	=47	=47	=47	=47
!	!	!	!	!	!	!LO:N:vis=00	!	!LO:N:vis=00	!
2G\	.	2g/	.	4g/|	.	00r	.	00r	.
.	.	.	.	4b/|	.	.	.	.	.
2D\	.	2d/	.	4d/|	.	.	.	.	.
.	.	.	.	4f#/|	.	.	.	.	.
=48	=48	=48	=48	=48	=48	=48	=48	=48	=48
2GG/	.	2.B/	.	2.g/	.	.	.	.	.
2r	.	.	.	.	.	.	.	.	.
.	.	4f#/	.	4a/	.	.	.	.	.
=49	=49	=49	=49	=49	=49	=49	=49	=49	=49
2GG/	.	2d 2B/	.	4b/|	.	.	.	.	.
.	.	.	.	4g/|	.	.	.	.	.
2r	.	4r	.	4cc/|	.	.	.	.	.
.	.	4d 4A/	.	4a/|	.	.	.	.	.
=50	=50	=50	=50	=50	=50	=50	=50	=50	=50
2GG/	.	2d 2B/	.	4b/|	.	.	.	.	.
.	.	.	.	4g/|	.	.	.	.	.
2r	.	4r	.	4a/|	.	.	.	.	.
.	.	4d 4A/	.	4d/|	.	.	.	.	.
=51	=51	=51	=51	=51	=51	=51	=51	=51	=51
!	!	!	!	!	!	!LO:N:vis=00	!	!LO:N:vis=00	!
2GG/	.	2d 2B/	.	4b/|	.	00r	.	00r	.
.	.	.	.	4g/|	.	.	.	.	.
2r	.	4r	.	4cc/|	.	.	.	.	.
.	.	4d 4A/	.	4a/|	.	.	.	.	.
!	!	!	!	!LO:LB:g=original	!	!	!	!	!
=52	=52	=52	=52	=52	=52	=52	=52	=52	=52
2GG/	.	2d 2B/	.	4b/|	.	.	.	.	.
.	.	.	.	4g/|	.	.	.	.	.
2r	.	4r	.	4a/|	.	.	.	.	.
.	.	4d 4A/	.	4d/|	.	.	.	.	.
!	!	!LO:LB:g=original	!	!	!	!	!	!	!
=53	=53	=53	=53	=53	=53	=53	=53	=53	=53
2G\	.	2g/	.	4g/|	.	.	.	.	.
.	.	.	.	4b/|	.	.	.	.	.
!	!	!	!	!LO:SIC:o=4e	!	!	!	!	!
2D\	.	2d/	.	4d/|	.	.	.	.	.
.	.	.	.	4f#/|	.	.	.	.	.
!LO:LB:g=original	!	!	!	!	!	!	!	!	!
=54	=54	=54	=54	=54	=54	=54	=54	=54	=54
2GG/	.	2B/	.	2g/	.	.	.	.	.
2r	.	2r	.	2r	.	.	.	.	.
=55	=55	=55	=55	=55	=55	=55	=55	=55	=55
!LO:TX:b:t=P:problem=pod nutą oznaczenie "+o"	!	!	!	!	!LO:DY:b:t=p.	!	!	!	!
2GG/	.	2B/	.	2g/	p	2g/	qui	2g/	Qui
4BB/	.	4g/	.	4b\	.	4f#/	prop-	4b\	prop-
4C#X/	.	4e/	.	4cc#X\	.	4e/	-ter	4cc#X\	-ter
=56	=56	=56	=56	=56	=56	=56	=56	=56	=56
!LO:TX:b:t=P:problem=pod nutą znak "+"	!	!	!	!	!	!	!	!	!
2D\	.	2f#/	.	2dd\	.	2f#/	nos.	2dd\	nos
2r	.	2r	.	2r	.	2r	.	2r	.
=57	=57	=57	=57	=57	=57	=57	=57	=57	=57
2D\	.	2f#/	.	2dd\	.	2f#/	nos	2dd\	nos
!	!	!	!	!	!	!LO:LB:g=original	!	!	!
4D\	.	4f#/	.	4dd\	.	4f#/	ho-	4dd\	ho-
4C#X/	.	4e/	.	4cc#X\	.	4e/	-mi-	4cc#X\	-mi-
=58	=58	=58	=58	=58	=58	=58	=58	=58	=58
1D	.	(>1f#	.	1dd	.	2f#/	-nes	2dd\	-nes
.	.	.	.	.	.	2r	.	2r	.
=59	=59	=59	=59	=59	=59	=59	=59	=59	=59
2GG/	.	2b\)	.	2dd\	.	2b\	et	2dd\	et
2r	.	4b\	.	4dd\	.	4b\	prop-	4dd\	prop-
.	.	4b\	.	4dd\	.	4b\	-ter.	4dd\	-ter
=60	=60	=60	=60	=60	=60	=60	=60	=60	=60
2D/	.	2a/	.	2cc\	.	2a\	no-	2ccn\	no-
2r	.	2a/	.	2cc\	.	2a\	-stram	2cc\	-stram
=61	=61	=61	=61	=61	=61	=61	=61	=61	=61
2GG/	.	2g/	.	2b\	.	2g\	ſa-	2b\	ſa-
2GG/	.	2g/	.	2b\	.	2g\	-lu-	2b\	-lu-
=62	=62	=62	=62	=62	=62	=62	=62	=62	=62
2D/	.	2f#/	.	2a/	.	2f#/	-tem	2a\	-tem
2r	.	2r	.	2r	.	2r	.	2r	.
!	!	!	!	!	!	!	!	!LO:LB:g=original	!
=63	=63	=63	=63	=63	=63	=63	=63	=63	=63
4r	.	4d/|	.	4r	.	2g/	des	2b\	De-
4G\	.	4g/|	.	4b/	.	.	.	.	.
4F#\	.	4f#/|	.	4a/	.	4f#/	-scen-	4a\	-scen-
4D\	.	4d/|	.	4f#/	.	4a/	-dit.	4cc\	-dit
!	!	!	!	!LO:LB:g=original	!	!	!	!	!
=64	=64	=64	=64	=64	=64	=64	=64	=64	=64
*	*	*	*	*	*	*	*ij	*	*ij
4r	.	4d/	.	4r	.	2g/	de-	2b\	De-
4G\	.	4g/	.	4b/	.	.	.	.	.
4F#\	.	4f#/	.	4a/	.	4f#/	-scen-	4a\	-scen-
4D\	.	4d/	.	4f#/	.	4a/	-dit	4cc\	-dit
*	*	*	*	*	*	*	*Xij	*	*Xij
!	!	!LO:LB:g=original	!	!	!	!	!	!	!
=65	=65	=65	=65	=65	=65	=65	=65	=65	=65
2G\	.	4g/|	.	4b\	.	4g\	de	4b\	de
.	.	4a/|	.	4cc\	.	4a\	Cae-	4cc\	Cae-
2GG/	.	4b/|	.	4dd\	.	4b\	.	4dd\	.
.	.	4g/|	.	4b\	.	4g\	.	4b\	-lis
!LO:LB:g=original	!	!	!	!	!	!	!	!	!
=66	=66	=66	=66	=66	=66	=66	=66	=66	=66
2D\	.	4f#/|	.	4a/	.	2f#/	-lis	2a\	.
.	.	4d/|	.	4d/	.	.	.	.	.
2r	.	4f#/|	.	4f#/	.	2r	.	2r	.
.	.	4a/|	.	4a/	.	.	.	.	.
!	!	!	!	!	!	!LO:LB:g=original	!	!	!
=67	=67	=67	=67	=67	=67	=67	=67	=67	=67
4r	.	4d/|	.	4r	.	2g\	de-	2b\	de-
4G'>\	.	4g/|	.	4b/	.	.	.	.	.
4F#'>\	.	4f#/|	.	4a/	.	4f#/	-scen-	4a\	-scen-
4D'>\	.	4d/|	.	4f#/	.	4a\	-dit	4cc\	-dit
=68	=68	=68	=68	=68	=68	=68	=68	=68	=68
*	*	*	*	*	*	*	*ij	*	*ij
4r	.	4d/|	.	4r	.	2g\	de-	2b\	de-
4G'>\	.	4g/|	.	4b/	.	.	.	.	.
4F#'>\	.	4f#/|	.	4a/	.	4f#/	-scen-	4a\	-scen-
4D'>\	.	4d/|	.	4f#/	.	4a/	-dit	4cc\	-dit
*	*	*	*	*	*	*	*Xij	*	*Xij
=69	=69	=69	=69	=69	=69	=69	=69	=69	=69
2G\	.	4g/|	.	4g/	.	2g/	de	2b\	de
.	.	4b/|	.	4gg\	.	.	.	.	.
2D\	.	4d/|	.	4d/	.	2d/	Cae-	2a\	Cae-
.	.	4a/|	.	4ff#\	.	.	.	.	.
=70	=70	=70	=70	=70	=70	=70	=70	=70	=70
2GG/	.	2b 2d 2B/	.	2gg 2b 2d/	.	2g\	-lis	2g/	-lis
!LO:TX:a:i:t=70.	!	!	!	!LO:TX:a:i:t=70.	!	!	!	!	!
2r	.	2r	.	2r	.	2r	.	2r	.
!	!	!	!	!	!	!	!	!LO:LB:g=original	!
=71||	=71||	=71||	=71||	=71||	=71||	=71||	=71||	=71||	=71||
*k[]	*	*k[]	*	*k[]	*	*k[]	*	*k[]	*
*	*	*	*	*	*	*	*	*	*
*M3/4	*	*M3/4	*	*M3/4	*	*M3/4	*	*M3/4	*
!LO:TX:a:i:t=adagio	!	!LO:TX:b:i:t=Et in Carnatus	!	!LO:TX:a:i:t=Adagio	!	!LO:TX:a:t=P:problem=brak kasownika w źródle	!	!LO:TX:a:t=P:problem=brak kasownika w źródle	!
!LO:TX:b:i:t=Et in Carnatus	!	!LO:TX:a:i:t=Adagio	!	!LO:TX:b:i:t=Et in carnatus —	!	!LO:TX:a:i:t=adagio	!	!LO:TX:a:i:t=adagio	!
!LO:TX:a:t=P:problem=brak kasownika w źródle	!	!LO:TX:a:t=P:problem=brak kasownika w źródle	!	!LO:TX:a:t=P:problem=brak kasownika w źródle	!	!	!	!	!
4C/	.	4e/	.	4g/	.	4e/	Et	4g\	Et
4C/	.	4e/	.	4cc/	.	4e/	In-	4cc\	in-
4C/	.	8e/L	.	8cc\L	.	8e/L	-car-	8cc\L	-car-
.	.	8g/J	.	8ee\J	.	8g/J	.	8ee\J	.
=72	=72	=72	=72	=72	=72	=72	=72	=72	=72
4GG/	.	8f/L	.	8dd\L	.	8f/L	-na-	8dd\	-na-
.	.	8d/J	.	8b\J	.	8d/J	-tus	8b\	-tus
8C'>\L	.	2e/	.	2cc\	.	2e/	eſt	2cc\	eſt.
8E'>\	.	.	.	.	.	.	.	.	.
8G'>\	.	.	.	.	.	.	.	.	.
8c'>\J	.	.	.	.	.	.	.	.	.
=73	=73	=73	=73	=73	=73	=73	=73	=73	=73
*	*	*	*	*	*	*	*ij	*	*
4C/	.	4e/	.	4cc\	.	4e/	et	4cc\	et
4C/	.	4cc\	.	4ee\	.	4cc\	in	4ee\	in
4C/	.	8cc\L	.	8ee\L	.	8cc\L	car-	8ee\L	car-
.	.	8ee\J	.	8gg\J	.	8ee\J	.	8gg\J	.
=74	=74	=74	=74	=74	=74	=74	=74	=74	=74
4G\	.	8dd\L	.	8ff\L	.	8dd\	-na-	8ff\	-na-
.	.	8b\J	.	8dd\J	.	8b\	-tus	8dd\	-tus
8c\L	.	2cc\	.	2ee\	.	2cc\	eſt	2ee\	eſt.
8G\	.	.	.	.	.	.	.	.	.
8E\	.	.	.	.	.	.	.	.	.
8C\J	.	.	.	.	.	.	.	.	.
*	*	*	*	*	*	*	*Xij	*	*
!	!	!LO:LB:g=original	!	!LO:LB:g=original	!	!LO:LB:g=original	!	!	!
=75	=75	=75	=75	=75	=75	=75	=75	=75	=75
4C/	.	4ee\	.	4gg\	.	4ee\	de	4gg\	de
4F\	.	8ee\L	.	8gg\L	.	8ee\L	Spi-	8gg\L	Spi-
.	.	(>8dd\	.	(>8ff\	.	8dd\J	.	8ff\J	.
4F#X\	.	8dd\	.	8ff\	.	8dd\L	-ri-	8ff\L	-ri-
.	.	8cc\J)	.	8ee\J)	.	8cc\J	-tu	8ee\J	-tu
!LO:LB:g=original	!	!	!	!	!	!	!	!	!
=76	=76	=76	=76	=76	=76	=76	=76	=76	=76
4G\	.	(>8cc\L	.	(>8ee\L	.	8cc\L	San-	8ee\L	San-
.	.	8b\J	.	8dd\J	.	8b\J	.	8dd\J	.
4D\	.	2b\)	.	2dd\)	.	2b\	-cto	2dd\	-cto
4GG/	.	.	.	.	.	.	.	.	.
=77	=77	=77	=77	=77	=77	=77	=77	=77	=77
*	*	*tremolo	*	*	*	*	*	*	*
4GG/	.	(<8f/L	.	8ff\L	.	4g/	ex	8ff\	ex
!	!	!	!	!	!LO:DY:b:t=p.	!	!	!	!
.	.	8g/	.	8dd\J	p	.	.	8dd\	Ma-
4r	.	8f/	.	4b\	.	4g/	Ma-	4b\	-ri-
.	.	8g/	.	.	.	.	.	.	.
4r	.	8f/	.	4g/	.	8g/L	-ri-	4g\	-a
.	.	8g/J)	.	.	.	8g/J	-a	.	.
!	!	!	!	!	!	!	!	!LO:LB:g=original	!
=78	=78	=78	=78	=78	=78	=78	=78	=78	=78
4C/	.	(<8e/L	.	8cc\L	.	8cc\	Vir-	8cc\L	Vir-
.	.	8g/	.	8ee\J	.	8cc\	-gi-	8ee\J	-gi-
4r	.	8e/	.	2gg\	.	2ee\	-ne	2gg\	-ne
.	.	8g/	.	.	.	.	.	.	.
4r	.	8e/	.	.	.	.	.	.	.
.	.	8g/J)	.	.	.	.	.	.	.
=79	=79	=79	=79	=79	=79	=79	=79	=79	=79
4GG/	.	(<8f/L	.	4ff\	.	4g/	Ma-	4ff\	Ma-
.	.	8g/	.	.	.	.	.	.	.
4G\	.	8f/	.	4dd\	.	4g/	-ri-	4dd\	-ri-
.	.	8g/	.	.	.	.	.	.	.
4GG/	.	8f/	.	4b\	.	4g/	-a	4b\	-a
.	.	8g/J)	.	.	.	.	.	.	.
*	*	*Xtremolo	*	*	*	*	*	*	*
=80	=80	=80	=80	=80	=80	=80	=80	=80	=80
8r	.	8f/L	.	8dd\L	.	8f/L	Vir-	8dd\L	Vir-
8c\L	.	8e/J	.	8cc\J	.	8e/J	-gi-	8cc\J	-gi-
8G\	.	2e 2G/	.	2cc\	.	2e/	-ne	2cc\	-ne
8E\J	.	.	.	.	.	.	.	.	.
4C/	.	.	.	.	.	.	.	.	.
=81	=81	=81	=81	=81	=81	=81	=81	=81	=81
*	*	*tremolo	*	*	*	*	*	*	*
!	!	!LO:TX:a:t=P:problem=Takty 81-84 zapisane repetycją	!	!LO:TX:a:t=P:problem=Takty 81-84 zapisane repetycją	!	!	!	!	!
4GG/	.	(<8f/Lyy	.	8ff\Lyy	.	4g\	et	8ff\L	et
!	!	!	!	!	!LO:DY:b:t=p.	!	!	!	!
.	.	8g/yy	.	8dd\Jyy	p	.	.	8dd\J	.
4r	.	8f/yy	.	4b\yy	.	4g\	ho-	4b\	ho-
.	.	8g/yy	.	.	.	.	.	.	.
4r	.	8f/yy	.	4g/yy	.	4g\	-mo	4g\	-mo
.	.	8g/J)yy	.	.	.	.	.	.	.
=82	=82	=82	=82	=82	=82	=82	=82	=82	=82
4C/	.	(<8e/Lyy	.	8cc\Lyy	.	8cc\	fac-	8cc\	fac-
.	.	8g/yy	.	8ee\Jyy	.	8cc\	-tus	8ee\	-tus
4r	.	8e/yy	.	2gg\yy	.	2ee\	eſt.	2gg\	eſt
.	.	8g/yy	.	.	.	.	.	.	.
4r	.	8e/yy	.	.	.	.	.	.	.
.	.	8g/J)yy	.	.	.	.	.	.	.
!	!	!	!	!	!	!LO:LB:g=original	!	!	!
=83	=83	=83	=83	=83	=83	=83	=83	=83	=83
4GG/	.	(<8f/Lyy	.	4ff\yy	.	4g\	et	4ff\	et
.	.	8g/yy	.	.	.	.	.	.	.
4G\	.	8f/yy	.	4dd\yy	.	4g\	ho-	4dd\	ho-
.	.	8g/yy	.	.	.	.	.	.	.
4GG/	.	8f/yy	.	4b\yy	.	4g\	-mo	4b\	-mo
.	.	8g/J)yy	.	.	.	.	.	.	.
*	*	*Xtremolo	*	*	*	*	*	*	*
=84	=84	=84	=84	=84	=84	=84	=84	=84	=84
8r	.	8f/Lyy	.	8dd\Lyy	.	8f/L	fac-	8dd\L	fac-
8c\L	.	8e/Jyy	.	8cc\Jyy	.	8e/J	-tus	8cc\J	-tus
8G\	.	2eyy 2G/yy	.	2cc\yy	.	2e/	eſt.	2cc\	eſt,
8E\J	.	.	.	.	.	.	.	.	.
4C/	.	.	.	.	.	.	.	.	.
=85	=85	=85	=85	=85	=85	=85	=85	=85	=85
!	!	!	!	!	!	!	!	!LO:TX:a:t=6.	!
!	!	!	!	!	!	!	!	!LO:N:vis=00	!
4C/	.	8cc\L	.	8cc\L	.	8cc\	Cru-	0.r	.
!	!	!	!	!	!LO:DY:b:t=for.	!	!	!	!
.	.	8b\J	.	8b\J	f	8b\	-ci-	.	.
!LO:TX:a:t=P:problem=nad pauzą znak "+"	!	!	!	!	!	!	!	!	!
4r	.	4cc\	.	4cc\	.	4cc\	-fi-	.	.
!LO:TX:b:t=P:problem=pod pauzą znak "+"	!	!	!	!	!	!	!	!	!
4r	.	4g/	.	4g/	.	4g\	-xus	.	.
=86	=86	=86	=86	=86	=86	=86	=86	=86	=86
*	*	*	*	*	*	*	*ij	*	*
4A\	.	8a/L	.	8a/L	.	8a\	Cru-	.	.
.	.	8g/J	.	8g/J	.	8g\	-ci-	.	.
4r	.	4a/	.	4a/	.	4a\	-fi-	.	.
4r	.	4e/	.	4e/	.	4e/	-xus	.	.
*	*	*	*	*	*	*	*Xij	*	*
=87	=87	=87	=87	=87	=87	=87	=87	=87	=87
8F\L	.	8f/L	.	8f/L	.	8f/L	e-	.	.
8E\J	.	8e/J	.	8e/J	.	8e/J	-ti-	.	.
4D\	.	4d/	.	4d/	.	4d/	-am	.	.
4C\	.	4c/	.	4c/	.	4c/	pro	.	.
!LO:LB:g=original	!	!	!	!	!	!	!	!	!
=88	=88	=88	=88	=88	=88	=88	=88	=88	=88
4G\	.	4g/	.	4g/	.	4g\	no-	.	.
4GG/	.	4G/	.	4G/	.	4G/	-bis.	.	.
4r	.	4r	.	4r	.	4r	.	.	.
!	!	!	!	!LO:LB:g=original	!	!	!	!	!
=89	=89	=89	=89	=89	=89	=89	=89	=89	=89
!	!	!LO:TX:a:t=2	!	!	!	!	!	!	!
!	!	!LO:N:vis=0	!	!	!	!	!	!LO:N:vis=0	!
4GG/	.	1.r	.	4g/	.	4g\	Sub	1.r	.
4r	.	.	.	8g/L	.	8g\	pon-	.	.
.	.	.	.	8a/	.	8a\	-ti-	.	.
4r	.	.	.	8b/	.	8b\	-o	.	.
.	.	.	.	8cc/J	.	8cc\	pi-	.	.
!	!	!	!	!	!	!LO:LB:g=original	!	!	!
=90	=90	=90	=90	=90	=90	=90	=90	=90	=90
8r	.	.	.	8dd\L	.	8dd\L	-la-	.	.
8G\L	.	.	.	8b\J	.	8b\J	.	.	.
8D\	.	.	.	2g/	.	2g\	-to	.	.
8BB\J	.	.	.	.	.	.	.	.	.
4GG/	.	.	.	.	.	.	.	.	.
!	!	!LO:LB:g=original	!	!	!	!	!	!	!
=91	=91	=91	=91	=91	=91	=91	=91	=91	=91
!LO:TX:b:t=P:problem=pod nutą oznaczenie "+o"	!	!	!	!	!	!LO:TX:a:t=2	!	!	!
!	!	!	!	!	!	!LO:N:vis=0	!	!	!
4C/	.	4c/	.	4cc\	.	1.r	.	4cc\	Sub
4r	.	8c/L	.	8cc\L	.	.	.	8cc\L	pon-
.	.	8d/	.	8dd\	.	.	.	8dd\J	-ti-
4r	.	8e/	.	8ee\	.	.	.	8ee\L	-o
.	.	8f/J	.	8ff\J	.	.	.	8ff\J	pi-
!	!	!	!	!	!	!	!	!LO:LB:g=original	!
=92	=92	=92	=92	=92	=92	=92	=92	=92	=92
8r	.	8g/L	.	8gg\L	.	.	.	8gg\L	-la-
8c\L	.	8e/J	.	8ee\J	.	.	.	8ee\J	.
8G\	.	2c/	.	2cc\	.	.	.	2cc\	-to
8E\J	.	.	.	.	.	.	.	.	.
4C/	.	.	.	.	.	.	.	.	.
=93	=93	=93	=93	=93	=93	=93	=93	=93	=93
*	*	*^	*	*	*	*	*	*	*
!	!	!	!LO:N:vis=1	!	!	!	!	!	!LO:TX:a:t=4.	!
!	!	!	!	!	!	!	!	!	!LO:N:vis=00	!
4r	.	8e/	2.G/	.	(>8cc\L	.	8cc\L	paſ-	0.r	.
.	.	4e/	.	.	8ee\J)	.	8ee\J	.	.	.
8r	.	.	.	.	2g/	.	2g\	-sus	.	.
8GG/L	.	4e/	.	.	.	.	.	.	.	.
8AA/	.	.	.	.	.	.	.	.	.	.
8BB/J	.	8e/	.	.	.	.	.	.	.	.
=94	=94	=94	=94	=94	=94	=94	=94	=94	=94	=94
*	*	*	*	*	*	*	*	*ij	*	*
!	!	!	!LO:N:vis=1	!	!	!	!	!	!	!
4r	.	8e/	2.G/	.	(>8cc\L	.	8cc\L	paſ-	.	.
.	.	4e/	.	.	8ee\J)	.	8ee\J	.	.	.
8r	.	.	.	.	2g/	.	2g\	-sus	.	.
8GG/L	.	4e/	.	.	.	.	.	.	.	.
8AA/	.	.	.	.	.	.	.	.	.	.
8BB/J	.	8e/	.	.	.	.	.	.	.	.
*	*	*	*	*	*	*	*	*Xij	*	*
*	*	*v	*v	*	*	*	*	*	*	*
=95	=95	=95	=95	=95	=95	=95	=95	=95	=95
8F\L	.	8f/L	.	8a/L	.	8a\L	et	.	.
8D\J	.	8g/J	.	8b/J	.	8b\J	ſe-	.	.
4G\	.	4e/	.	4cc\	.	4cc\	-pul-	.	.
4GG/	.	4d/	.	4b\	.	4b\	-tus	.	.
=96	=96	=96	=96	=96	=96	=96	=96	=96	=96
2C/	.	2e 2G/	.	2cc\	.	2cc\	eſt	.	.
!	!	!	!	!LO:TX:a:t=26.	!	!	!	!	!
4r	.	4r	.	4r	.	4r	.	.	.
!LO:TX:a:i:t=26.	!	!	!	!	!	!	!	!	!
!LO:LB:g=original	!	!	!	!	!	!	!	!	!
=97||	=97||	=97||	=97||	=97||	=97||	=97||	=97||	=97||	=97||
*k[f#]	*	*k[f#]	*	*k[f#]	*	*k[f#]	*	*k[f#]	*
*M2/2	*	*M2/2	*	*M2/2	*	*M2/2	*	*M2/2	*
*met(c|)	*	*met(c|)	*	*met(c|)	*	*met(c|)	*	*met(c|)	*
!LO:TX:a:i:t=alla br[eve].	!	!LO:TX:a:i:t=alla br[eve].	!	!LO:TX:a:i:t=ala br[eve].	!	!LO:TX:a:t=P:problem=metrum "C|" skierowane w drugą stronę	!	!LO:TX:a:t=P:problem=metrum "C|" skierowane w drugą stronę	!
!LO:TX:b:i:t=Et Resurexit =	!	!LO:TX:b:i:t=Et Resurexit	!	!LO:TX:b:i:t=Et Resurexit =	!	!LO:TX:a:i:t=all[egr]o.	!	!LO:TX:a:i:t=all[egr]o.	!
!LO:TX:a:t=P:problem=metrum "C|" skierowane w drugą stronę	!	!LO:TX:a:t=P:problem=metrum "C|" skierowane w drugą stronę	!	!LO:TX:a:t=P:problem=metrum "C|" skierowane w drugą stronę	!	!	!	!	!
2GG/	.	2g/	.	2b\	.	2g\	Et	2b\	Et
2r	.	4g/	.	4b\	.	4g\	Re-	4b\	Re-
.	.	4a/	.	4cc\	.	4a\	-su-	4cc\	-su-
=98	=98	=98	=98	=98	=98	=98	=98	=98	=98
2GG/	.	2b/	.	2dd\	.	2b\	-re-	2dd\	-re-
2r	.	2g/	.	2b\	.	2g/	-xit	2b\	-xit
!	!	!	!	!LO:LB:g=original	!	!	!	!	!
=99	=99	=99	=99	=99	=99	=99	=99	=99	=99
2D\	.	2a/	.	2cc\	.	2a\	ter-	2cc\	ter-
2D\	.	4f#/	.	4a\	.	4f#\	-ti-	4a\	-ti-
.	.	4a/	.	4cc\	.	4a\	-a	4cc\	-a
!	!	!	!	!	!	!LO:LB:g=original	!	!	!
=100	=100	=100	=100	=100	=100	=100	=100	=100	=100
2D\	.	4a/	.	(>4cc\	.	4a\	Di-	4cc\	di-
!	!	!	!	!	!	!	!LO:SIC:s=-e	!	!LO:SIC:s=-e
.	.	4g/	.	4b\)	.	4g\	-ae	4b\	-ae
2GG/	.	2g/	.	2b/	.	2g\	.	2b\	.
!	!	!LO:LB:g=original	!	!	!	!	!	!	!
=101	=101	=101	=101	=101	=101	=101	=101	=101	=101
2BB/	.	2g/	.	2b\	.	2g\	Se-	2b\	Se-
2BB/	.	2g/	.	2b\	.	2g\	-cun-	2b\	-cun-
=102	=102	=102	=102	=102	=102	=102	=102	=102	=102
2C/	.	2e/	.	2cc\	.	2e/	-dum	2cc\	-dum
!	!	!	!	!	!	!	!	!LO:SIC:l:s=scrip	!
2C#X/	.	2e/	.	2cc#X\	.	2e/	scri-	2cc#X\	scip-
=103	=103	=103	=103	=103	=103	=103	=103	=103	=103
4D\	.	4f#/	.	4dd\	.	4f#/	-ptu-	4dd\	-tu-
4C#X\	.	4e/	.	4cc#X\	.	4e/	.	4cc#X\	.
4D\	.	4f#/	.	4dd\	.	4f#/	.	4dd\	.
4E\	.	4g/	.	4ee\	.	4g/	.	4ee\	.
!	!	!	!	!	!	!	!	!LO:LB:g=original	!
=104	=104	=104	=104	=104	=104	=104	=104	=104	=104
2D\	.	2f#/	.	2dd\	.	2f#/	-ras	2dd\	-ras
2r	.	2r	.	2r	.	2r	.	2r	.
=105	=105	=105	=105	=105	=105	=105	=105	=105	=105
!	!	!	!LO:DY:b:t=p.	!	!LO:DY:b:t=p.	!	!	!	!
2G\	.	4g/	p	4b\	p	4g\	et	4b\	et
.	.	4a/	.	4cc\	.	4a\	a-	4cc\	a-
2r	.	2b/	.	2dd\	.	2b\	.	2dd\	.
=106	=106	=106	=106	=106	=106	=106	=106	=106	=106
2D/	.	4f#/	.	4a\	.	4f#/	-scen-	4a\	-scen-
.	.	4g/	.	4b\	.	4g/	.	4b\	-dit
2r	.	2a/	.	2cc\	.	2a\	-dit	2cc\	.
!	!	!LO:TX:b:t=tro	!	!	!	!	!	!	!
!	!	!LO:TX:a:t=vi de	!	!	!	!	!	!	!
=107	=107	=107	=107	=107	=107	=107	=107	=107	=107
!	!	!LO:TX:a:t=P:problem=takd dopisany na końcu partii 2. skrzypiec (str. 21, s. 11)	!LO:DY:b	!	!	!	!	!	!
2G\	.	4g/	.	4b\	.	4g\	In	4b\	in
.	.	4a/	.	4cc\	.	4a\	.	4cc\	.
2r	.	2b/	.	2dd\	.	2b\	.	2dd\	.
!	!	!LO:TX:a:t=Re	!	!	!	!	!	!	!
=108	=108	=108	=108	=108	=108	=108	=108	=108	=108
2D/	.	2c/	.	2a/	.	2f#/	Cae-	2a\	cae-
2GG/	.	2B/	.	2g/	.	2e/	-lum	2g\	-lum
!LO:LB:g=original	!	!	!	!	!	!LO:LB:g=original	!	!	!
=109	=109	=109	=109	=109	=109	=109	=109	=109	=109
2G\	.	2g/	.	2b\	.	2g\	ſe-	2b\	ſe-
2GG/	.	4g/	.	4b\	.	4g\	-det	4b\	-det
.	.	4b/	.	4dd\	.	4b\	ad	4dd\	ad
=110	=110	=110	=110	=110	=110	=110	=110	=110	=110
2D/	.	2a/	.	2cc\	.	2a\	dex-	2cc\	dex-
2DD/	.	4f#/	.	4a\	.	4f#/	-t(e)-	4a\	-t(e)-
.	.	4a/	.	4cc\	.	4a/	-ram	4cc\	-ram
!	!	!	!	!LO:LB:g=original	!	!	!	!	!
=111	=111	=111	=111	=111	=111	=111	=111	=111	=111
2GG/	.	4d/	.	4b/	.	4d/	pa-	4b\	pa-
.	.	4c/	.	4a/	.	4c/	.	4a\	-tris
2r	.	2B/	.	2g/	.	2B/	-tris	2g/	.
=112	=112	=112	=112	=112	=112	=112	=112	=112	=112
!LO:TX:a:t=P:problem=nad nutą znak "+"	!	!	!LO:DY:b:t=for.	!	!	!LO:TX:a:t=13.	!	!LO:TX:a:t=ii.	!
!	!	!	!	!	!	!LO:N:vis=00	!	!LO:N:vis=00	!
2GG/	.	4g'</	f	4g/|	.	00r	.	00r	.
!	!	!	!	!	!LO:DY:b:t=for.	!	!	!	!
.	.	4g'</	.	4b/|	f	.	.	.	.
2r	.	4f#'</	.	4a/|	.	.	.	.	.
.	.	4a'</	.	4cc/|	.	.	.	.	.
!	!	!LO:LB:g=original	!	!	!	!	!	!	!
=113	=113	=113	=113	=113	=113	=113	=113	=113	=113
2GG/	.	4g'</	.	4b\|	.	.	.	.	.
.	.	4b'</	.	4dd\|	.	.	.	.	.
2r	.	4a'</	.	4cc\|	.	.	.	.	.
.	.	4cc'</	.	4ee\|	.	.	.	.	.
=114	=114	=114	=114	=114	=114	=114	=114	=114	=114
2GG/	.	4b'</	.	4dd\|	.	.	.	.	.
.	.	4g'</	.	4b\|	.	.	.	.	.
2r	.	4a'</	.	4cc\|	.	.	.	.	.
.	.	4f#'</	.	4a\|	.	.	.	.	.
=115	=115	=115	=115	=115	=115	=115	=115	=115	=115
2GG/	.	4g'</	.	4g/|	.	.	.	.	.
.	.	4f#'</	.	4f#/|	.	.	.	.	.
2r	.	4e'</	.	4e/|	.	.	.	.	.
.	.	4d'</	.	4d/|	.	.	.	.	.
=116	=116	=116	=116	=116	=116	=116	=116	=116	=116
!	!LO:DY:b:t=for.	!	!	!	!	!LO:N:vis=00	!	!LO:N:vis=00	!
4G'>\	f	4B'</	.	4g/|	.	00r	.	00r	.
4B'>\	.	4d'</	.	4b/|	.	.	.	.	.
4A'>\	.	4c'</	.	4a/|	.	.	.	.	.
4F#'>\	.	4A'</	.	4f#/|	.	.	.	.	.
=117	=117	=117	=117	=117	=117	=117	=117	=117	=117
4G'>\	.	4B'</	.	4g/|	.	.	.	.	.
4B'>\	.	4d'</	.	4b/|	.	.	.	.	.
4A'>\	.	4c'</	.	4a/|	.	.	.	.	.
4F#'>\	.	4A'</	.	4f#/|	.	.	.	.	.
=118	=118	=118	=118	=118	=118	=118	=118	=118	=118
4G'>\	.	4B'</	.	4g/|	.	.	.	.	.
4B'>\	.	4g'</	.	4b/|	.	.	.	.	.
4d'>\	.	4b'</	.	4dd/|	.	.	.	.	.
4c'>\	.	4a'</	.	4cc/|	.	.	.	.	.
=119	=119	=119	=119	=119	=119	=119	=119	=119	=119
4A'>\	.	4d'</	.	4a/|	.	.	.	.	.
4F#'>\	.	4d'</	.	4f#/|	.	.	.	.	.
4D'>\	.	4d'</	.	4d/|	.	.	.	.	.
4F#'>\	.	4d'</	.	4f#/|	.	.	.	.	.
=120	=120	=120	=120	=120	=120	=120	=120	=120	=120
!	!	!	!	!	!	!LO:N:vis=00	!	!LO:N:vis=0	!
4G'>\	.	4B'</	.	4g/|	.	00r	.	0r	.
4B'>\	.	4d'</	.	4b/|	.	.	.	.	.
4A'>\	.	4c'</	.	4a/|	.	.	.	.	.
4F#'>\	.	4A'</	.	4f#/|	.	.	.	.	.
!LO:LB:g=original	!	!	!	!	!	!	!	!	!
=121	=121	=121	=121	=121	=121	=121	=121	=121	=121
4G'>\	.	4B'</	.	4g/|	.	.	.	.	.
4B'>\	.	4d'</	.	4b/|	.	.	.	.	.
4A'>\	.	4c'</	.	4a/|	.	.	.	.	.
4F#'>\	.	4A'</	.	4f#/|	.	.	.	.	.
!LO:LB:g=original	!	!	!	!LO:LB:g=original	!	!	!	!	!
=122	=122	=122	=122	=122	=122	=122	=122	=122	=122
2G\	.	2B/	.	2g/	.	.	.	1r	.
2r	.	2r	.	2r	.	.	.	.	.
=123	=123	=123	=123	=123	=123	=123	=123	=123	=123
!LO:TX:a:t=8	!	!	!LO:DY:b:t=p.	!	!LO:DY:b:t=p.	!	!	!	!
!LO:N:vis=00	!	!	!	!	!	!	!	!	!
00r	.	2g/|	p	2dd\	p	.	.	2dd\	Et
.	.	2g/|	.	2b\	.	.	.	2b\	vi-
!	!	!LO:LB:g=original	!	!	!	!	!	!LO:LB:g=original	!
=124	=124	=124	=124	=124	=124	=124	=124	=124	=124
.	.	2g/	.	2g/	.	1r	.	2g/	-tum
.	.	2r	.	2d/	.	.	.	2r	.
=125	=125	=125	=125	=125	=125	=125	=125	=125	=125
!	!	!	!	!	!	!	!	!LO:TX:a:t=4.	!
.	.	2d/	.	2a/	.	2a\	Ven-	00r	.
.	.	2d/	.	2f#/	.	2f#/	-tu-	.	.
=126	=126	=126	=126	=126	=126	=126	=126	=126	=126
.	.	2d/	.	2d/	.	2d/	-ri	.	.
.	.	2r	.	2d/	.	2r	.	.	.
=127	=127	=127	=127	=127	=127	=127	=127	=127	=127
!LO:N:vis=00	!	!	!	!	!	!	!	!	!
00r	.	2d/	.	4d/|	.	4d/	ſae-	.	.
.	.	.	.	4e/|	.	4e/	.	.	.
.	.	2d/	.	4f#/|	.	4f#/	-cu-	.	.
.	.	.	.	4d/|	.	4d/	-li	.	.
=128	=128	=128	=128	=128	=128	=128	=128	=128	=128
.	.	2g/	.	4g/|	.	4g\	a-	.	.
.	.	.	.	4b/|	.	4b\	.	.	.
.	.	2b/	.	2dd\|	.	2dd\	-men	.	.
=129	=129	=129	=129	=129	=129	=129	=129	=129	=129
.	.	4b/	.	4ee\|	.	2g\	a-	4dd\	a-
.	.	4a/	.	4cc\|	.	.	.	4cc\	.
.	.	4f#/	.	4a\|	.	2g\	.	4a\	.
.	.	4g/	.	4b\|	.	.	.	4b\	.
=130	=130	=130	=130	=130	=130	=130	=130	=130	=130
.	.	2g/	.	2g/	.	2g\	-men	2g/	-men
.	.	2d/	.	2d/	.	2r	.	2r	.
=131	=131	=131	=131	=131	=131	=131	=131	=131	=131
!LO:TX:a:t=P:problem=nad nutą oznaczenie "+o"	!	!	!	!	!LO:DY:b:t=for.	!LO:TX:a:t=8	!	!LO:TX:a:t=8	!
!	!	!	!	!	!	!LO:N:vis=00	!	!LO:N:vis=00	!
4A\	.	4e/	.	4cc#X\	f	00r	.	00r	.
4A\	.	4e/	.	4cc#\	.	.	.	.	.
!LO:TX:b:t=P:problem=pod nutą znak "+"	!	!	!	!	!	!	!	!	!
4A\	.	4e/	.	4cc#\	.	.	.	.	.
4A\	.	4e/	.	4a\	.	.	.	.	.
=132	=132	=132	=132	=132	=132	=132	=132	=132	=132
4A\	.	2.f#/	.	2.dd\	.	.	.	.	.
4A\	.	.	.	.	.	.	.	.	.
4A\	.	.	.	.	.	.	.	.	.
4A\	.	4dd\	.	4ff#\	.	.	.	.	.
=133	=133	=133	=133	=133	=133	=133	=133	=133	=133
4A\	.	4ff#\	.	4aa\|	.	.	.	.	.
4A\	.	(>4ee\	.	4gg\|	.	.	.	.	.
4A\	.	4cc#X\	.	4ee\|	.	.	.	.	.
4A\	.	4dd\)	.	4ff#\|	.	.	.	.	.
!	!	!	!	!LO:LB:g=original	!	!	!	!	!
=134	=134	=134	=134	=134	=134	=134	=134	=134	=134
4A\	.	2f#/	.	2.dd\	.	.	.	.	.
4A\	.	.	.	.	.	.	.	.	.
4A\	.	2r	.	.	.	.	.	.	.
*	*	*	*	*tuplet	*	*	*	*	*
!	!	!	!	!LO:TUP:a:problem=kreska nad grupą niemiarową	!	!	!	!	!
4A\	.	.	.	12cc#X\L	.	.	.	.	.
.	.	.	.	12b\	.	.	.	.	.
.	.	.	.	12a\J	.	.	.	.	.
=135	=135	=135	=135	=135	=135	=135	=135	=135	=135
!	!	!	!	!	!	!LO:N:vis=00	!	!LO:N:vis=00	!
4A\	.	4e/	.	4cc#X\|	.	00r	.	00r	.
4A\	.	4e/	.	4cc#\|	.	.	.	.	.
4A\	.	4e/	.	4cc#\|	.	.	.	.	.
4A\	.	4e/	.	4a\|	.	.	.	.	.
!	!	!LO:LB:g=original	!	!	!	!	!	!	!
=136	=136	=136	=136	=136	=136	=136	=136	=136	=136
4A\	.	2.f#/	.	2.dd\	.	.	.	.	.
4A\	.	.	.	.	.	.	.	.	.
4A\	.	.	.	.	.	.	.	.	.
4A\	.	4dd\	.	4ff#\	.	.	.	.	.
=137	=137	=137	=137	=137	=137	=137	=137	=137	=137
4A\	.	4ff#\	.	4aa\|	.	.	.	.	.
4A\	.	(>4ee\	.	4gg\|	.	.	.	.	.
4A\	.	4cc#X\	.	4ee\|	.	.	.	.	.
4A\	.	4dd\)	.	4ff#\|	.	.	.	.	.
=138	=138	=138	=138	=138	=138	=138	=138	=138	=138
4D\	.	4f#/	.	4dd\|	.	.	.	.	.
4r	.	(<4a/	.	4ccn\|	.	.	.	.	.
2r	.	4g/	.	4b\|	.	.	.	.	.
.	.	4f#/)	.	4a\|	.	.	.	.	.
!LO:LB:g=original	!	!	!	!	!	!	!	!	!
=139	=139	=139	=139	=139	=139	=139	=139	=139	=139
!LO:TX:b:t=P:problem=pod nutą oznaczenie "+o"	!	!	!	!	!LO:DY:b:t=p.	!LO:LB:g=original	!	!	!
2G\	.	(<4g/	.	4b\	p	4g\	a-	4b\	a-
.	.	4a/	.	4cc\	.	4a\	.	4cc\	.
2r	.	2b/)	.	2dd\	.	2b\	-men	2dd\	-men
=140	=140	=140	=140	=140	=140	=140	=140	=140	=140
*	*	*	*	*	*	*	*ij	*	*ij
2D\	.	(<4f#/	.	4a\	.	4f#\	a-	4a\	a-
.	.	4g/	.	4b\	.	4g\	.	4b\	.
2r	.	2a/)	.	2cc\	.	2a\	-men	2cc\	-men
*	*	*	*	*	*	*	*Xij	*	*Xij
=141	=141	=141	=141	=141	=141	=141	=141	=141	=141
2G\	.	(<4g/	.	4b\	.	4g\	a-	4b\	a-
.	.	4a/	.	4cc\	.	4a\	.	4cc\	.
2r	.	2b/)	.	2dd\	.	2b\	-men	2dd\	-men
=142	=142	=142	=142	=142	=142	=142	=142	=142	=142
*	*	*	*	*	*	*	*ij	*	*
2D\	.	2.f#/	.	2.a/	.	2.f#/	a-	2.a\	a-
2r	.	.	.	.	.	.	.	.	.
.	.	4a/	.	4cc\	.	4a\	-men	4cc\	-men
*	*	*	*	*	*	*	*Xij	*	*
=143	=143	=143	=143	=143	=143	=143	=143	=143	=143
2G\	.	(<4g/	.	4b\	.	4g\	a-	4b\	a-
.	.	4a/	.	4cc\	.	4a\	.	4cc\	.
2r	.	2b/)	.	2dd\	.	2b\	-men	2dd\	-men
!	!	!	!	!LO:LB:g=original	!	!	!	!LO:LB:g=original	!
=144	=144	=144	=144	=144	=144	=144	=144	=144	=144
*	*	*	*	*	*	*	*ij	*	*
2D\	.	4f#/	.	4a/	.	4f#/	a-	4a\	a-
.	.	(<4g/	.	4b/	.	4g/	.	4b\	.
2r	.	2a/)	.	2cc\	.	2a\	-men	2cc\	-men
*	*	*	*	*	*	*	*Xij	*	*
=145	=145	=145	=145	=145	=145	=145	=145	=145	=145
*	*	*^	*	*	*	*	*	*	*
4G\	.	4g/	1d	.	4b\	.	2g/	a-	2b\	a-
4r	.	4b/	.	.	4dd\	.	.	.	.	.
4G\	.	4b/	.	.	4gg\	.	2f#/	.	2a\	.
4D\	.	4a/	.	.	4ff#\	.	.	.	.	.
*	*	*v	*v	*	*	*	*	*	*	*
=146	=146	=146	=146	=146	=146	=146	=146	=146	=146
2GG/	.	2b 2d 2G/	.	4gg 4b 4d 4B/	.	2g/	-men	2b\	-men
.	.	.	.	4r	.	.	.	.	.
2r	.	2r	.	2r	.	2r	.	2r	.
!LO:TX:a:t=50.	!	!	!	!LO:TX:a:t=50.	!	!	!	!	!
==	==	==	==	==	==	==	==	==	==
*-	*-	*-	*-	*-	*-	*-	*-	*-	*-
!!!system-decoration: [g1][g2]s5
!!!RDF**kern: > = above
!!!RDF**kern: < = below
!!!EED: Mateusz Mrugas
!!!EEV: 2021-01-10
!!!ENC: Tomasz Grochalski
!!!END: 2020-12-07
!!!RDF**kern: | = vertical stroke
